X:3
T:Petit Branle
S:http://www.fourwinds.demon.nl/branles.htm
Z:Jack Campin <http://www.campin.me.uk/> 2002
M:C|
L:1/8
K:D Dorian
   dcde defd|e6      dc| BcAB ^G3 A|[1 A8    :|\
                                    [2 A6    ||
de|f3 g fga2|f3 g  f2c2| fga2  a2g2|[1 f6    :|\
                                    [2 f8    ||
   f2f2 e2e2|d2d2  c4  |_B2B2  A2A2|   G3F F4 |
   F2G2 A3 A|GA_Bc A3c | defg  a2d2|  ^c3d d4:|
